src/components/icons/tokens/imusd-mta.svg

<svg width="497" height="499" viewBox="0 0 497 499" fill="none" xmlns="http://www.w3.org/2000/svg">
<g clip-path="url(#clip0)">
<path d="M496 333C496 241.873 422.127 168 331 168C239.873 168 166 241.873 166 333C166 424.127 239.873 498 331 498C422.127 498 496 424.127 496 333Z" fill="black"/>
<path d="M250.51 279.31C250.51 272.82 250.11 266.54 249.51 260.05H278.51L279.51 273.23C282.76 268.77 290.66 257.82 311.14 257.82C334.66 257.82 341.35 272.21 343.37 277.08C351.88 260.66 365.66 258 376.21 258C396.88 258 405.21 270.37 407.42 274.42C412.9 283.34 412.49 295.71 412.49 304.63V360.71H382.29V302.22C382.29 291.22 380.66 279.11 365.06 279.11C347.01 279.11 346.61 295.93 346.61 311.11V360.7H316.4V301.61C316.4 293.7 316.2 279.11 299.57 279.11C280.72 279.11 280.72 295.32 280.72 302.22V360.73H250.51V279.31V279.31ZM249.5 383.24H412.5V408.18H249.5V383.24Z" fill="#F4F4F4"/>
<path d="M166 308C245.529 308 310 243.529 310 164C310 84.471 245.529 20 166 20C86.471 20 22 84.471 22 164C22 243.529 86.471 308 166 308Z" fill="white"/>
<path d="M165 330C197.634 330.001 229.535 320.324 256.67 302.193C283.804 284.063 304.952 258.293 317.44 228.143C326.776 205.603 330.998 181.272 329.801 156.904C328.603 132.536 322.017 108.737 310.516 87.22C299.015 65.7033 282.886 47.0048 263.29 32.4711C243.694 17.9373 221.119 7.93009 197.19 3.17003C162.472 -3.73548 126.453 0.707264 94.4538 15.8421C62.4542 30.977 36.1703 56.0015 19.4836 87.22C2.79703 118.438 -3.40753 154.196 1.78629 189.211C6.9801 224.226 23.2969 256.642 48.327 281.673C79.2707 312.616 121.239 330 165 330ZM165 302.71C144.638 302.707 124.531 298.19 106.125 289.483C87.719 280.776 71.4727 268.096 58.5558 252.356C45.6389 236.616 36.3728 218.208 31.4247 198.456C26.4765 178.705 25.9695 158.103 29.94 138.132C35.2514 111.419 48.364 86.8811 67.62 67.62C93.521 42.1516 128.435 27.9474 164.76 28.1003C201.084 28.2533 235.878 42.751 261.563 68.4367C287.249 94.1223 301.747 128.916 301.9 165.24C302.053 201.565 287.848 236.479 262.38 262.38C249.621 275.207 234.445 285.376 217.729 292.298C201.014 299.221 183.092 302.76 165 302.71V302.71ZM165 46.37C141.537 46.37 118.601 53.3276 99.0927 66.3628C79.5841 79.398 64.379 97.9255 55.4002 119.602C46.4213 141.279 44.0721 165.132 48.6494 188.144C53.2268 211.156 64.5252 232.293 81.1159 248.884C97.7066 265.475 118.844 276.773 141.856 281.351C164.868 285.928 188.721 283.579 210.398 274.6C232.075 265.621 250.602 250.416 263.637 230.907C276.672 211.399 283.63 188.463 283.63 165C283.593 133.549 271.083 103.396 248.844 81.1563C226.604 58.9168 196.451 46.4065 165 46.37V46.37ZM100.38 204H227.85V223.5H100.38V204ZM153.21 154.7C153.32 158.02 153.78 163.84 161.55 165.78V148.32L154.35 146.38C146.59 144.32 133.91 140.9 133.91 125.38C133.91 114.64 141.45 102.99 161.55 102.38V92.13H168.28V102.41C191.01 103.41 195.23 113.6 195.35 125.82H174.56C174.68 117.82 170 116.34 168.28 116.12V132.45C180.16 135.07 186.1 136.45 191.47 140.9C193.607 142.782 195.307 145.109 196.451 147.718C197.594 150.326 198.154 153.153 198.09 156C198.09 160.8 196.49 170.62 184.84 176.33C180.62 178.33 175.36 179.41 168.28 179.87V190H161.55V179.84C150.01 179.38 132.77 175.61 132.65 154.71L153.21 154.7V154.7ZM161.55 116C155.49 117.6 155.04 121.6 155.04 123.31C155.04 126.74 157.66 129.71 161.55 130.62V116V116ZM168.28 166C174.11 165.09 176.73 161.55 176.73 157.66C176.73 152.07 171.6 150.66 170.11 150.35L168.28 149.78V166V166Z" fill="#020202"/>
</g>
<defs>
<clipPath id="clip0">
<rect width="497" height="499" fill="white"/>
</clipPath>
</defs>
</svg>

<svg width="497" height="499" fill="none" xmlns="http://www.w3.org/2000/svg"><path d="M496 333c0-91.127-73.873-165-165-165s-165 73.873-165 165 73.873 165 165 165 165-73.873 165-165z" fill="#000"/><path d="M250.51 279.31c0-6.49-.4-12.77-1-19.26h29l1 13.18c3.25-4.46 11.15-15.41 31.63-15.41 23.52 0 30.21 14.39 32.23 19.26 8.51-16.42 22.29-19.08 32.84-19.08 20.67 0 29 12.37 31.21 16.42 5.48 8.92 5.07 21.29 5.07 30.21v56.08h-30.2v-58.49c0-11-1.63-23.11-17.23-23.11-18.05 0-18.45 16.82-18.45 32v49.59H316.4v-59.09c0-7.91-.2-22.5-16.83-22.5-18.85 0-18.85 16.21-18.85 23.11v58.51h-30.21v-81.42zm-1.01 103.93h163v24.94h-163v-24.94z" fill="#F4F4F4"/><circle cx="166" cy="164" r="144" fill="#fff"/><g clip-path="url(#clip0)"><path d="M165 330a164.995 164.995 0 00152.44-101.857A165.002 165.002 0 00197.19 3.17 165.001 165.001 0 0048.327 281.673 165.001 165.001 0 00165 330zm0-27.29A137.722 137.722 0 0129.94 138.132 137.72 137.72 0 0167.62 67.62a137.721 137.721 0 01194.76 194.76 136.8 136.8 0 01-44.651 29.918A136.809 136.809 0 01165 302.71zm0-256.34A118.63 118.63 0 10283.63 165 118.768 118.768 0 00165 46.37zM100.38 204h127.47v19.5H100.38V204zm52.83-49.3c.11 3.32.57 9.14 8.34 11.08v-17.46l-7.2-1.94c-7.76-2.06-20.44-5.48-20.44-21 0-10.74 7.54-22.39 27.64-23V92.13h6.73v10.28c22.73 1 26.95 11.19 27.07 23.41h-20.79c.12-8-4.56-9.48-6.28-9.7v16.33c11.88 2.62 17.82 4 23.19 8.45a19.541 19.541 0 016.62 15.1c0 4.8-1.6 14.62-13.25 20.33-4.22 2-9.48 3.08-16.56 3.54V190h-6.73v-10.16c-11.54-.46-28.78-4.23-28.9-25.13l20.56-.01zm8.34-38.7c-6.06 1.6-6.51 5.6-6.51 7.31 0 3.43 2.62 6.4 6.51 7.31V116zm6.73 50c5.83-.91 8.45-4.45 8.45-8.34 0-5.59-5.13-7-6.62-7.31l-1.83-.57V166z" fill="#020202"/></g><defs><clipPath id="clip0"><path fill="#fff" d="M0 0h330v330H0z"/></clipPath></defs></svg>
